X:657
T:Reel 657
M:4/4
K:Cmaj
L:1/8
GF|EDEF GcBc|GFEC DG,G,D|GFEF GcBc|GFED C2z2|GccB c2cd|edcB cBGF|EDEF GABd|cAGF ECc2|edcB cBGE|FEFG ADCf|ecdB cBAG| (3ABc GE F2EF| (3EDC GC ACGC|EDEG Add2|ecdB cBAG|AcBd cAGE|
